rospo-icon-theme-classic-common/16x16/apps/rto-proxy.svg

<svg height="16" viewBox="0 0 16 16" width="16" xmlns="http://www.w3.org/2000/svg"><path d="m8 0a8 8 0 0 0 -8 8 8 8 0 0 0 8 8 8 8 0 0 0 8-8 8 8 0 0 0 -8-8z" fill="#46c552"/><path d="m8.0000001 3.0000005 1.6245984 3.291796 3.6327125.5278642-2.628655 2.5623057.620541 3.6180336-3.249197-1.708204-3.249197 1.708204.6205415-3.6180336-2.6286555-2.562306 3.6327125-.5278639z" fill="#fff" transform="matrix(.95105653 0 0 1 .391548 0)"/></svg>

<svg xmlns="http://www.w3.org/2000/svg" width="16" height="16" version="1.1" viewBox="0 0 16 16">
 <path style="fill:#46c552" d="M 8,0 A 8,8 0 0 0 0,8 8,8 0 0 0 8,16 8,8 0 0 0 16,8 8,8 0 0 0 8,0 Z"/>
 <path style="fill:#ffffff" d="M 8.0000001,3.0000005 9.6245985,6.2917965 13.257311,6.8196607 10.628656,9.3819664 11.249197,13 8,11.291796 4.750803,13 5.3713445,9.3819664 2.742689,6.8196604 6.3754015,6.2917965 Z" transform="matrix(0.95105653,0,0,1,0.39154772,-4.6097734e-7)"/>
</svg>
